X: 193
T: Song in Honor of Two Bears
C: Teton Sioux band 1911-1914
N: Derived from sioux188.krn
O: South Dakota, U.S.A.
N: Teton Sioux Music by Frances Densmore, 1918
Z: transcribed to **kern format by Craig Sapp
L: 1/8
M: 2/4
Q: 1/4=58
K: D clef=bass
%%linebreak <none>
F/ F E/ [I:setbarnb 1]| 
F/ E/ D D3/ B,/ | 
z D F3/ E/ | 
F/ E/ D D3/ B,/ | 
D< B, B,3/ B,/ | 
D< B,B,2 | 
A, A, A, F, ||  
[M:3/4]B,4B,3/ B,/ | 
D4B,3/ D/ | 
B,4A, A, ||  
[M:2/4]A,2F, F, ||  
[M:3/4]F,4-F, F, ||  
[M:2/4]F,4 | 
F,4 | 
B,< D D3/ D/ ||  
[M:3/4]F< E F< D D D | 
D> B, D< B, B,3/ B,/ ||  
[M:2/4]D< B, B,3/ A,/ | 
A,< A, (A,3/ F,/) ||  
[M:3/4]B,4B,3/ B,/ | 
D4B,3/ D/ | 
B,4A, A, ||  
[M:2/4]A,2F, F, | 
F,4 | 
F,4 |]  



